icons/glyphs/glyph-vivaldi.svg

<?xml version="1.0" encoding="UTF-8" standalone="no"?><svg height="16" viewBox="0 0 4.2333332 4.2333332" width="16" xmlns="http://www.w3.org/2000/svg"><sodipodi:namedview/><metadata><rdf:RDF><cc:Work><dc:format>image/svg+xml</dc:format><dc:type/><dc:title/></cc:Work></rdf:RDF></metadata><path d="m3.7147697.16282281c-.084885.0000634-.1708286.017847-.2396355.052478-.1005335.050607-.2017151.1578048-.246604.2612414-.047704.1099411-.054555.3037694-.014364.406768.017.043567.046333.11842079.065176.16635119.042554.1082315.057872.3462812.030891.4800036-.0303779.1505544-.124757.3244797-.2353852.4337794-.3320021.3280131-.8339536.3337606-1.1636926.0133169-.1137852-.1105794-.1299238-.136982-.6435867-1.05361119-.174378-.311194-.33078095-.5717515-.36336081-.6054223-.10208682-.1080102-.24395013-.1466387-.37389514-.1472835-.2793956-.0045345-.47305126.2140894-.51899851.4487589-.03394428.1877942-.04955852.1554715.85297071 1.76380679.56966745 1.0151374.84044995 1.4830762.88485035 1.5290722.1572691.1629482.381336.2033434.5909966.1065399.055127-.025453.1175318-.0712.1573946-.115376.078082-.086531 1.6928182-2.95302919 1.7190318-3.05153399.027461-.1033471.02064-.2501861-.016311-.3518008-.0459668-.1264004-.1727825-.2560963-.2978592-.3046161-.0561396-.0217785-.1215208-.0324545-.1875338-.0324024z" fill="#d0d0d0" stroke-width=".264583"/></svg>

<?xml version="1.0" encoding="UTF-8" standalone="no"?>
<!-- Created with Inkscape (http://www.inkscape.org/) -->

<svg
   xmlns:dc="http://purl.org/dc/elements/1.1/"
   xmlns:cc="http://creativecommons.org/ns#"
   xmlns:rdf="http://www.w3.org/1999/02/22-rdf-syntax-ns#"
   xmlns:svg="http://www.w3.org/2000/svg"
   xmlns="http://www.w3.org/2000/svg"
   xmlns:xlink="http://www.w3.org/1999/xlink"
   xmlns:sodipodi="http://sodipodi.sourceforge.net/DTD/sodipodi-0.dtd"
   xmlns:inkscape="http://www.inkscape.org/namespaces/inkscape"
   width="16"
   height="16"
   viewBox="0 0 4.2333332 4.2333332"
   version="1.1"
   id="svg8"
   inkscape:version="0.92+devel (4546dc857e, 2017-07-25, custom)"
   sodipodi:docname="glyph-vivaldi.svg">
  <defs
     id="defs2">
    <linearGradient
       xlink:href="#linearGradient4328"
       id="linearGradient4334"
       x1="16.044001"
       y1="9.6400003"
       x2="32.784"
       y2="40.675999"
       gradientUnits="userSpaceOnUse"
       gradientTransform="matrix(0.16281795,0,0,0.16281795,-1.7909643,-1.7909643)" />
    <linearGradient
       id="linearGradient4328">
      <stop
         style="stop-color:#ffffff;stop-opacity:1;"
         offset="0"
         id="stop2" />
      <stop
         style="stop-color:#ffa7a7;stop-opacity:1"
         offset="1"
         id="stop4" />
    </linearGradient>
  </defs>
  <sodipodi:namedview
     id="base"
     pagecolor="#002466"
     bordercolor="#ffffff"
     borderopacity="0.38039216"
     inkscape:pageopacity="1"
     inkscape:pageshadow="2"
     inkscape:zoom="36.415999"
     inkscape:cx="10.094581"
     inkscape:cy="7.9162778"
     inkscape:document-units="px"
     inkscape:current-layer="svg8"
     inkscape:document-rotation="0"
     showgrid="false"
     inkscape:showpageshadow="false"
     borderlayer="true"
     inkscape:window-width="1920"
     inkscape:window-height="1051"
     inkscape:window-x="0"
     inkscape:window-y="0"
     inkscape:window-maximized="1"
     units="px" />
  <metadata
     id="metadata5">
    <rdf:RDF>
      <cc:Work
         rdf:about="">
        <dc:format>image/svg+xml</dc:format>
        <dc:type
           rdf:resource="http://purl.org/dc/dcmitype/StillImage" />
        <dc:title></dc:title>
      </cc:Work>
    </rdf:RDF>
  </metadata>
  <path
     style="fill:#d0d0d0;fill-opacity:1;stroke-width:0.26458332"
     d="m 3.7147697,0.16282281 c -0.084885,6.34e-5 -0.1708286,0.017847 -0.2396355,0.052478 -0.1005335,0.050607 -0.2017151,0.1578048 -0.246604,0.2612414 -0.047704,0.1099411 -0.054555,0.3037694 -0.014364,0.406768 0.017,0.043567 0.046333,0.11842079 0.065176,0.16635119 0.042554,0.1082315 0.057872,0.3462812 0.030891,0.4800036 C 3.2798553,1.6802194 3.1854762,1.8541447 3.074848,1.9634444 2.7428459,2.2914575 2.2408944,2.297205 1.9111554,1.9767613 1.7973702,1.8661819 1.7812316,1.8397793 1.2675687,0.92315011 1.0931907,0.61195611 0.93678775,0.35139861 0.90420789,0.31772781 0.80212107,0.20971761 0.66025776,0.17108911 0.53031275,0.17044431 0.25091715,0.16590981 0.05726149,0.38453371 0.01131424,0.61920321 -0.02263004,0.80699741 -0.03824428,0.77467471 0.86428495,2.38301 1.4339524,3.3981474 1.7047349,3.8660862 1.7491353,3.9120822 c 0.1572691,0.1629482 0.381336,0.2033434 0.5909966,0.1065399 0.055127,-0.025453 0.1175318,-0.0712 0.1573946,-0.115376 0.078082,-0.086531 1.6928182,-2.95302919 1.7190318,-3.05153399 0.027461,-0.1033471 0.02064,-0.2501861 -0.016311,-0.3518008 C 4.1542805,0.37351091 4.0274648,0.24381501 3.9023881,0.19529521 3.8462485,0.17351671 3.7808673,0.16284071 3.7148543,0.16289281 Z"
     id="path28"
     inkscape:connector-curvature="0"
     inkscape:label="#" />
</svg>
